X:1
T:Albemarle -- Hornpipe
R:hornpipe
B:Cole's 1000 Fiddle Tunes
M:2/4
L:1/16
K:A
((3uEFG)|AGBG .A2(Bc)|dBGB .A2(Bc)|\
dcfe dcBA|BABG .E2(FG)|
AGBG .A2(Bc)|dBGB .A2(cd)|\
(3eag (3fed (3cde (3cBA|(3GAB (3EFG A2:|
|:vcd|ecAa fdBa|gbeg .a2(gf)|e^dfe =dcBA|
GABG .E2(FG)|"4"AECE cAEA|\
dBGB ecAc|eagf (3efe (3dcB|A2a2A2:|
